X:1
T:Lesson 3 - Jingle Bells
M:C
K:A
L:1/4
vc c c2|c c c2|c e A B|c4|d d d d|d c c c|
c B B c|B2 e2|uc c c2|c c c2|c e A B|c4|
ud d d d|d c c c|e e d B|A4|]
